!!!!SEGMENT: Ric2013-Quem_dicunt_homines.krn
!!!id: Ric2013
!!!AGN: Motet
!!!SCT: Elzinga (1999)
!!!voices: 4
!!!COM: Jean Richafort
!!!OTL: Quem dicunt homines
**kern	**kern	**kern	**kern
*part4	*part3	*part2	*part1
*staff4	*staff3	*staff2	*staff1
*I"Bassus	*I"Tenor	*I"Altus	*I"Superius
*I'B	*I'T	*I'A	*I'S
*clefF4	*clefGv2	*clefGv2	*clefG2
*k[]	*k[]	*k[]	*k[]
*C:	*C:	*C:	*C:
*M2/1	*M2/1	*M2/1	*M2/1
*met(C|)	*met(C|)	*met(C|)	*met(C|)
!!section: Prima pars: Quem dicunt homines
!!!OMD: Prima pars: Quem dicunt homines
=1	=1	=1	=1
0r	1G	0r	0r
.	2G	.	.
.	2G	.	.
=2	=2	=2	=2
0r	2A	0r	0r
.	2B	.	.
.	1G	.	.
=3	=3	=3	=3
0r	2r	0r	1g
.	2G	.	.
.	2.c	.	2g
.	.	.	2g
.	4B	.	.
=4	=4	=4	=4
0r	2A	0r	2a
.	2G	.	2b
.	2c	.	1g
.	2B	.	.
=5	=5	=5	=5
0r	2.e	1c	2r
.	.	.	2g
.	4d	.	.
.	4c	2c	2.cc
.	4B	.	.
.	4A	2c	.
.	4G	.	4b
=6	=6	=6	=6
0r	2F	2d	2a
.	2E	2e	2g
.	2r	2c	2a
.	2G	4B	2g
.	.	4A	.
=7	=7	=7	=7
1C	2.c	2G	0e
.	.	2G	.
.	4B	.	.
2C	2A	2.c	.
2C	2G	.	.
.	.	4B	.
=8	=8	=8	=8
2D	2F	2A	1r
2E	2G	2G	.
1C	2E	2.c	2r
.	[2e	.	2g
.	.	4d	.
=9	=9	=9	=9
2r	4e]	1e	2.cc
.	4d	.	.
2C	2.c	.	.
.	.	.	4b
2.F	.	2c	2.a
.	4B	.	.
.	2A	[2d	.
4E	.	.	4g
=10	=10	=10	=10
2D	2B	2d]	2f
2C	1c	2G	1e
2F	.	1A	.
2F	4B	.	2d
.	4A	.	.
=11	=11	=11	=11
0E	0G	1B	1e
.	.	2r	2r
.	.	2B	2e
=12	=12	=12	=12
2r	2r	2c	2e
2E	2G	2B	2e
2C	2A	2.c	1e
2C	[2G	.	.
.	.	8BL	.
.	.	8cJ	.
=13	=13	=13	=13
1E	2G]	2B	1e
.	2c	2G	.
1G	2c	2r	1d
.	2B	[2g	.
=14	=14	=14	=14
2C	2c	4g]	2.g
.	.	4f	.
1c	1e	4e	.
.	.	4d	4f
.	.	[1g	4e
.	.	.	4d
2B	2d	.	[2dd
=15	=15	=15	=15
1A	2e	2g]	4dd]
.	.	.	4cc
.	2c	2f#i	1cc
1G	1d	1g	.
.	.	.	2b
=16	=16	=16	=16
2r	1c	1g	0cc
1c	.	.	.
.	1r	2r	.
2c	.	[2g	.
=17	=17	=17	=17
2B	0r	2g]	0r
2G	.	2g	.
2A	.	1f	.
2B	.	.	.
=18	=18	=18	=18
1c	2r	1e	0r
.	1c	.	.
2.C	.	[1g	.
.	2c	.	.
4D	.	.	.
=19	=19	=19	=19
2E	2B	2g]	2r
2F	2A	2f	1cc
1C	2.c	2e	.
.	.	[2g	2cc
.	4d	.	.
=20	=20	=20	=20
0r	2e	2g]	2b
.	2.A	2f	2a
.	.	[1e	2.cc
.	4G	.	.
.	4A	.	.
.	8GL	.	4b
.	8FJ	.	.
=21	=21	=21	=21
0r	2E	1e]	2g
.	2A	.	2a
.	2D	1d	2b
.	[2d	.	[2a
=22	=22	=22	=22
0r	4d]	2r	2a]
.	4c	.	.
.	2B	2d	1g
.	1A	2d	.
.	.	2c	2f#i
=23	=23	=23	=23
1G	2r	2.B	1g
.	2d	.	.
.	.	8AL	.
.	.	8GJ	.
2G	2d	2B	1r
2F	2d	[2A	.
=24	=24	=24	=24
1E	1e	4A]	2r
.	.	4G	.
.	.	4G	2g
.	.	4F	.
2C	2.E	2.G	2g
[2G	.	.	2g
.	4F	4A	.
=25	=25	=25	=25
2G]	2G	2B	2d
4F	2A	1c	1f
4E	.	.	.
1D	1F	.	.
.	.	2B	4e
.	.	.	4d
=26	=26	=26	=26
[0C	2r	0c	[0e
.	2G	.	.
.	2A	.	.
.	2G	.	.
=27	=27	=27	=27
0C]	2.c	2r	1e]
.	.	2c	.
.	4B	.	.
.	2A	2.c	2r
.	2G	.	2e
.	.	4B	.
=28	=28	=28	=28
1r	1F	2c	1f
.	.	2d	.
2r	2E	1e	1g
2G	[2e	.	.
=29	=29	=29	=29
2.A	4e]	1r	1e
.	4d	.	.
.	4c	.	.
4B	4B	.	.
1c	2A	1e	2r
.	[2c	.	2g
=30	=30	=30	=30
2A	4c]	1c	2.a
.	4B	.	.
2.c	4A	.	.
.	4G	.	4b
.	4F	2A	1cc
4B	4G	.	.
4A	4A	[2a	.
4G	4B	.	.
=31	=31	=31	=31
2F	4c	4a]	2a
.	4A	4g	.
2G	1d	1g	2b
1A	.	.	[1cc
.	2c	2f#i	.
=32	=32	=32	=32
[0G	0d	1g	2cc]
.	.	.	4b
.	.	.	4a
.	.	2r	[1b
.	.	2d	.
=33	=33	=33	=33
0G_	2r	2e	1b]
.	2d	2d	.
.	2e	4B	2r
.	.	4A	.
.	2d	4B	[2g
.	.	4c	.
=34	=34	=34	=34
0G]	2B	2d	2g]
.	2.d	2G	2g
.	.	2.B	1g
.	4c	.	.
.	4B	.	.
.	4A	4c	.
=35	=35	=35	=35
0r	2G	2d	2g
.	1c	1e	2g
.	.	.	1a
.	4B	4d	.
.	4A	4c	.
=36	=36	=36	=36
2r	[0B	1.d	1g
1G	.	.	.
.	.	.	2d
2G	.	8dL	[2g
.	.	8c	.
.	.	8B	.
.	.	8AJ	.
=37	=37	=37	=37
1G	0B]	2G	4g]
.	.	.	4f
.	.	2.g	2e
2G	.	.	2d
.	.	4f	.
2G	.	4e	[2g
.	.	4d	.
=38	=38	=38	=38
1A	2r	1c	2g]
.	2c	.	2f#i
1G	2c	2r	1g
.	2B	2d	.
=39	=39	=39	=39
2r	2A	2.e	0r
2C	2G	.	.
.	.	4f	.
2E	1c	2g	.
2F	.	2c	.
=40	=40	=40	=40
4G	1B	2.e	0r
4F	.	.	.
4G	.	.	.
4A	.	8dL	.
.	.	8eJ	.
2B	1r	2d	.
[2c	.	2c	.
=41	=41	=41	=41
2c]	1r	1d	2r
2B	.	.	2g
1c	2r	1c	2.g
.	2c	.	.
.	.	.	4f
=42	=42	=42	=42
1C	2.c	2r	2e
.	.	2G	4c
.	4B	.	4d
1r	2A	2c	4e
.	.	.	4f
.	2G	2d	[2g
=43	=43	=43	=43
2r	1c	1e	4g]
.	.	.	4c
2C	.	.	1g
2.G	1B	1d	.
.	.	.	4f
4A	.	.	4e
=44	=44	=44	=44
1B	0r	2r	1d
.	.	2G	.
1A	.	2.c	1e
.	.	4d	.
=45	=45	=45	=45
1c	1r	4e	0r
.	.	4f	.
.	.	2.g	.
2c	2r	.	.
.	.	4f	.
2B	2G	4d	.
.	.	4e	.
=46	=46	=46	=46
2.A	2.c	2f	2r
.	.	2.e	2c
4G	4d	.	.
4E	1e	.	2.g
4F	.	4d	.
[2G	.	4B	.
.	.	4c	4a
=47	=47	=47	=47
2G]	1.d	2.d	2b
4F	.	.	2a
4E	.	4c	.
2F	.	1A	1cc
2A	2c	.	.
=48	=48	=48	=48
2G	2.d	2r	2b
1F	.	2A	1a
.	4c	.	.
.	4A	2F	.
.	4B	.	.
4E	[2c	2G	4g
4D	.	.	4f
=49	=49	=49	=49
2C	4c]	4G	4e
.	4B	4A	4d
2E	2G	4B	1g
.	.	4c	.
1D	1A	1d	.
.	.	.	2f#i
=50	=50	=50	=50
1G	1G	2r	0g
.	.	2d	.
2r	1r	1e	.
2G	.	.	.
=51	=51	=51	=51
2A	0r	2c	0r
2F	.	1d	.
1G	.	.	.
.	.	[2G	.
=52	=52	=52	=52
2C	2r	2G]	1r
2E	2G	1c	.
1D	2A	.	2r
.	2F	2B	2d
=53	=53	=53	=53
1C	2.G	1c	2e
.	.	.	2c
.	4A	.	.
1r	4B	1r	2d
.	4c	.	.
.	[2d	.	[2f
=54	=54	=54	=54
0r	4d]	1r	4f]
.	4c	.	4e
.	1c	.	4d
.	.	.	4c
.	.	2r	1d
.	2B	[2g	.
=55	=55	=55	=55
2r	1c	2g]	1c
2c	.	2g	.
2c	1r	1e	1r
2c	.	.	.
=56	=56	=56	=56
2A	1r	1f	0r
2B	.	.	.
2c	2r	2.e	.
4C	2c	.	.
4D	.	4f	.
=57	=57	=57	=57
4E	2c	4g	0r
4C	.	4e	.
1F	2c	1a	.
.	2A	.	.
2G	2B	[2g	.
=58	=58	=58	=58
2E	1c	4g]	2r
.	.	4f	.
2.A	.	4e	2cc
.	.	4d	.
.	1r	1c	2cc
4G	.	.	.
4F	.	.	2cc
4E	.	.	.
=59	=59	=59	=59
2F	1r	2r	2a
2G	.	2g	2b
1C	2r	2g	1cc
.	2c	2g	.
=60	=60	=60	=60
0r	2c	1e	2r
.	2c	.	1cc
.	2A	1f	.
.	2B	.	2b
=61	=61	=61	=61
0r	2.c	1e	2g
.	.	.	2.cc
.	4B	.	.
.	4A	2r	.
.	4G	.	4b
.	[2F	2c	[2a
=62	=62	=62	=62
0r	4F]	2c	4a]
.	4E	.	4g
.	4D	2c	4f
.	4C	.	4e
.	1D	2A	1f
.	.	2B	.
=63	=63	=63	=63
2r	1C	2.c	2.e
2c	.	.	.
.	.	4d	4f
2c	1r	4e	2g
.	.	4f	.
2c	.	[2e	2a
=64	=64	=64	=64
2A	1r	2e]	1f
2B	.	2d	.
4c	2r	1e	1e
4B	.	.	.
4A	2c	.	.
4G	.	.	.
=65	=65	=65	=65
1A	2c	2r	0r
.	2c	2e	.
1G	4d	2g	.
.	4c	.	.
.	4B	2g	.
.	4A	.	.
=66	=66	=66	=66
0r	2B	1g	2r
.	1c	.	2e
.	.	[1e	2g
.	4B	.	2a
.	4A	.	.
=67	=67	=67	=67
0r	2G	0e_	2b
.	1A	.	1cc
.	4G	.	4b
.	4F	.	4a
=68	=68	=68	=68
1r	2E	2e]	2g
.	2F	4d	4f
.	.	4c	4e
2r	1G	2B	2d
2E	.	[2c	[2e
=69	=69	=69	=69
2G	0r	2c]	2e]
2G	.	4B	4d
.	.	4A	4c
1G	.	2B	1d
.	.	2G	.
=70	=70	=70	=70
2E	0r	2.g	1c
2C	.	.	.
.	.	4f	.
2.c	.	2e	1r
.	.	2d	.
4B	.	.	.
=71	=71	=71	=71
2A	0r	4e	2r
.	.	4d	.
2G	.	1g	2g
1A	.	.	[1cc
.	.	2f#i	.
=72	=72	=72	=72
1G	2r	1g	2cc]
.	2G	.	2b
1r	[1c	1e	2a
.	.	.	4g
.	.	.	4f
=73	=73	=73	=73
2r	2c]	0r	4e
.	.	.	4f
2G	2B	.	4g
.	.	.	4e
2A	2A	.	2f
2B	2G	.	[2g
=74	=74	=74	=74
1c	1A	1r	2g]
.	.	.	2f#i
2r	1G	2r	1g
2C	.	2c	.
=75	=75	=75	=75
2F	2r	2c	2r
2E	2G	2c	2e
1D	2A	2.d	2f
.	2B	.	2d
.	.	8cL	.
.	.	8BJ	.
=76	=76	=76	=76
2r	1c	2A	1e
2C	.	2c	.
2F	2r	2c	2r
2E	2G	2c	2e
=77	=77	=77	=77
1D	2A	2.d	2f
.	2B	.	2d
.	.	8cL	.
.	.	8BJ	.
2r	4c	2A	2e
.	4B	.	.
2C	4c	2G	2g
.	4d	.	.
=78	=78	=78	=78
2c	2e	2r	2a
2B	2.d	2g	2b
1A	.	2a	4cc
.	4c	.	4b
.	[2c	2f	4cc
.	.	.	4dd
=79	=79	=79	=79
2G	2c]	1g	2ee
2B	2B	.	2.dd
1A	1c	2e	.
.	.	.	4cc
.	.	2f	[2cc
=80	=80	=80	=80
1G	1d	1.g	2cc]
.	.	.	2b
2E	[1cl	.	[1ccl
[2F	.	[2a	.
=81	=81	=81	=81
2F]	0c_	2a]	0cc_
4E	.	4g	.
4D	.	4f	.
[1Cl	.	[1el	.
=	=	=	=
00C]	00c]	00e]	00cc]
=||	=||	=||	=||
*M2/1	*M2/1	*M2/1	*M2/1
*met(C|)	*met(C|)	*met(C|)	*met(C|)
!!section: Secunda pars: Petre diligis me?
!!!OMD: Secunda pars: Petre diligis me?
0r	0r	1r	1g
.	.	1c	[1cc
=82	=82	=82	=82
0r	0r	1.f	2cc]
.	.	.	8ccL
.	.	.	8b
.	.	.	8a
.	.	.	8gJ
.	.	.	2a
.	.	2f	2a
=83	=83	=83	=83
1r	1G	2e	2b
.	.	2d	2b
1C	[1c	1e	1g
=84	=84	=84	=84
1.F	2c]	0r	0r
.	8cL	.	.
.	8B	.	.
.	8A	.	.
.	8GJ	.	.
.	2A	.	.
2F	2A	.	.
=85	=85	=85	=85
2E	2B	0r	1r
2D	2B	.	.
1E	1G	.	[1g
=86	=86	=86	=86
0r	0r	1c	2g]
.	.	.	2a
.	.	2d	1b
.	.	[2e	.
=87	=87	=87	=87
0r	1r	2e]	2g
.	.	4d	1cc
.	.	4c	.
.	2r	1d	.
.	[2G	.	2b
=88	=88	=88	=88
1C	2G]	1c	1cc
.	2A	.	.
2D	1B	1r	1r
[2E	.	.	.
=89	=89	=89	=89
2E]	2G	1r	0r
4D	1c	.	.
4C	.	.	.
1D	.	2r	.
.	2B	[2f	.
=90	=90	=90	=90
1C	1c	2f]	1cc
.	.	2e	.
2r	1r	2d	2b
[2c	.	2c	[2a
=91	=91	=91	=91
2c]	1r	1d	4a]
.	.	.	4g
2B	.	.	1g
2A	2r	1c	.
2A	[2c	.	2f#i
=92	=92	=92	=92
1G	2c]	0r	2.g
.	2B	.	.
.	.	.	4e
1r	2A	.	2f
.	2G	.	[2g
=93	=93	=93	=93
0r	1c	2r	4g]
.	.	.	4f
.	.	1c	2e
.	1G	.	1d
.	.	2B	.
=94	=94	=94	=94
0r	2r	2c	1g
.	1c	2c	.
.	.	1G	2g
.	2B	.	2g
=95	=95	=95	=95
0r	2.A	1.c	4f
.	.	.	4e
.	.	.	2.a
.	4G	.	.
.	4F	.	.
.	4E	.	4g
.	[2A	2c	4f
.	.	.	4e
=96	=96	=96	=96
0r	2A]	1B	2f
.	2G	.	1e
.	1F	1A	.
.	.	.	2d
=97	=97	=97	=97
2r	0E	1B	0e
2E	.	.	.
2G	.	2r	.
2G	.	2B	.
=98	=98	=98	=98
2G	0r	2d	0r
2G	.	2d	.
1D	.	2d	.
.	.	2d	.
=99	=99	=99	=99
1F	2r	4A	0r
.	.	4B	.
.	2A	4c	.
.	.	4d	.
2E	2c	2e	.
2F	2c	2c	.
=100	=100	=100	=100
2C	2c	1e	2r
1c	2c	.	2e
.	1G	1d	2g
2B	.	.	2g
=101	=101	=101	=101
1c	4C	1c	2g
.	4D	.	.
.	4E	.	2g
.	4F	.	.
1r	4G	1r	2d
.	4A	.	.
.	4B	.	2g
.	4c	.	.
=102	=102	=102	=102
0r	2d	2r	4f
.	.	.	4e
.	1c	2c	4d
.	.	.	4c
.	.	2g	1d
.	2B	2g	.
=103	=103	=103	=103
2r	1c	2.g	1c
2C	.	.	.
.	.	8fL	.
.	.	8eJ	.
2G	1r	2d	1r
2G	.	[2e	.
=104	=104	=104	=104
2A	0r	4e]	1r
.	.	4d	.
2.c	.	8eL	.
.	.	8d	.
.	.	8c	.
.	.	8BJ	.
.	.	2A	2r
4B	.	.	.
4c	.	[2a	2c
4A	.	.	.
=105	=105	=105	=105
2B	0r	4a]	2g
.	.	4g	.
2c	.	1g	2g
1A	.	.	2a
.	.	2f#i	[2cc
=106	=106	=106	=106
1G	2r	0g	2cc]
.	2E	.	4b
.	.	.	4a
1r	2G	.	4b
.	.	.	4a
.	2G	.	4g
.	.	.	4f
=107	=107	=107	=107
0r	2A	0r	4e
.	.	.	4d
.	2.c	.	4e
.	.	.	4f
.	.	.	2g
.	4B	.	.
.	4c	.	[2a
.	4A	.	.
=108	=108	=108	=108
0r	2B	1r	4a]
.	.	.	4g
.	2c	.	1g
.	1A	2r	.
.	.	2c	2f#i
=109	=109	=109	=109
2r	1G	2d	1g
2C	.	2e	.
2D	1r	2.f	1r
[2F	.	.	.
.	.	4e	.
=110	=110	=110	=110
2F]	2r	2d	0r
2E	2G	2c	.
1D	2A	1f	.
.	2B	.	.
=111	=111	=111	=111
1C	1c	0e	2r
.	.	.	2g
1r	2A	.	2a
.	[2c	.	2g
=112	=112	=112	=112
0r	2c]	2r	1cc
.	4B	2c	.
.	4A	.	.
.	2G	2d	2b
.	2A	[2f	[2a
=113	=113	=113	=113
0r	1E	2f]	4a]
.	.	.	4g
.	.	2e	2g
.	1r	2d	4f
.	.	.	4e
.	.	[2f	[2a
=114	=114	=114	=114
0r	2r	2f]	2a]
.	2G	1e	2g
.	2A	.	1f
.	2B	2d	.
=115	=115	=115	=115
2r	2.c	1e	1e
2C	.	.	.
.	4B	.	.
2D	4A	1r	1r
.	4G	.	.
[2F	[2d	.	.
=116	=116	=116	=116
2F]	4d]	0r	1r
.	4c	.	.
2E	1c	.	.
1D	.	.	2r
.	2B	.	[2f
=117	=117	=117	=117
0C	1c	2r	2f]
.	.	1c	1e
.	1G	.	.
.	.	2c	4d
.	.	.	4c
=118	=118	=118	=118
2r	1r	2B	2d
1F	.	2c	2c
.	2r	4A	1r
.	.	4B	.
2F	[2c	4c	.
.	.	4d	.
=119	=119	=119	=119
2E	2c]	4e	0r
.	.	4f	.
2C	2c	1e	.
2E	2B	.	.
2F	2A	[2d	.
=120	=120	=120	=120
2.G	2.B	4d]	0r
.	.	4c	.
.	.	4B	.
4A	4c	4A	.
2B	2d	2G	.
[2c	2e	2g	.
=121	=121	=121	=121
4c]	2.A	4a	2r
4B	.	4g	.
4A	.	4f	1cc
4G	4B	4e	.
1A	1c	1f	.
.	.	.	2cc
=122	=122	=122	=122
2.G	1.d	2g	2b
.	.	2d	2g
4F	.	.	.
2D	.	2.f	2b
2F	2c	.	[2a
.	.	4e	.
=123	=123	=123	=123
2G	2B	2d	4a]
.	.	.	4g
2E	4A	2c#i	1g
.	4G	.	.
1D	1A	1d	.
.	.	.	2f#i
=124	=124	=124	=124
1G	2r	2r	1g
.	2G	2d	.
1r	2G	2d	2r
.	2G	2d	2g
=125	=125	=125	=125
2r	2.G	2B	2g
2G	.	2G	2g
.	4F	.	.
2G	1E	4B	2g
.	.	4A	.
2G	.	4B	2g
.	.	4c	.
=126	=126	=126	=126
2.G	0r	2d	1.g
.	.	2.e	.
4F	.	.	.
2E	.	.	.
.	.	4d	.
2F	.	[2d	2f
=127	=127	=127	=127
2G	1r	4d]	2e
.	.	4c	.
2A	.	1c	2c
1G	2r	.	1d
.	2G	2B	.
=128	=128	=128	=128
0C	2G	2.c	1e
.	2G	.	.
.	.	4d	.
.	2.G	4e	2.c
.	.	4f	.
.	.	[2g	.
.	4F	.	4d
=129	=129	=129	=129
0r	2E	4g]	4e
.	.	4f	4f
.	2C	2e	4g
.	.	.	4a
.	2.G	2d	4b
.	.	.	4cc
.	.	2g	[2dd
.	4A	.	.
=130	=130	=130	=130
1r	2B	4f	4dd]
.	.	4e	4cc
.	2c	4d	1cc
.	.	4c	.
2r	1G	1d	.
2G	.	.	2b
=131	=131	=131	=131
4A	2r	0c	2cc
4G	.	.	.
4A	2c	.	2c
4B	.	.	.
2c	2A	.	4e
.	.	.	4d
2C	[2c	.	4e
.	.	.	4f
=132	=132	=132	=132
4C	2c]	2r	1.g
4D	.	.	.
4E	4B	2G	.
4F	4A	.	.
[1G	[1B	4G	.
.	.	4A	.
.	.	4B	2d
.	.	4c	.
=133	=133	=133	=133
2G]	2B]	2d	2g
2G	2B	2d	2g
2G	2B	2d	[1g
2G	2B	2d	.
=134	=134	=134	=134
2.C	2.c	1e	1g]
4D	8BL	.	.
.	8AJ	.	.
4E	2G	1c	1r
4C	.	.	.
2F	2A	.	.
=135	=135	=135	=135
2E	2G	0r	2r
1F	1A	.	2c
.	.	.	4c
.	.	.	4d
4E	4G	.	4e
4D	4F	.	4f
=136	=136	=136	=136
1C	4E	1r	2g
.	4C	.	.
.	1c	.	2g
1r	.	1G	2g
.	2B	.	2g
=137	=137	=137	=137
0r	2A	1c	2.e
.	2.c	.	.
.	.	.	4d
.	.	2A	2e
.	4B	.	.
.	[2A	[2c	[2f
=138	=138	=138	=138
0r	4A]	4c]	4f]
.	4G	4B	4e
.	4F	4A	1e
.	4E	4G	.
.	2F	2A	.
.	2G	2B	2d
=139	=139	=139	=139
2r	1C	2G	1e
2G	.	2g	.
2A	1r	2f	1r
[2c	.	2e	.
=140	=140	=140	=140
2c]	1r	4d	1r
.	.	4e	.
2B	.	4f	.
.	.	4d	.
1c	2r	4e	2r
.	.	4f	.
.	2c	[2g	2g
=141	=141	=141	=141
1A	2c	2g]	2a
.	2c	2f#i	1cc
2G	1d	1g	.
2G	.	.	2b
=142	=142	=142	=142
2A	2c	0r	2a
2B	2B	.	1g
1c	1A	.	.
.	.	.	2f#i
=143	=143	=143	=143
2r	1G	2r	1g
2C	.	2c	.
2F	2r	2c	2r
2E	2G	2c	2e
=144	=144	=144	=144
1D	2A	2.d	2f
.	2B	.	2d
.	.	8cL	.
.	.	8BJ	.
2r	1c	4A	1e
.	.	4G	.
2C	.	2c	.
=145	=145	=145	=145
2F	2r	2c	2r
2E	2G	2c	2e
1D	2A	2.d	2f
.	2B	.	2d
.	.	8cL	.
.	.	8BJ	.
=146	=146	=146	=146
2r	4c	2A	2e
.	4B	.	.
2C	4c	2G	2g
.	4d	.	.
2c	2e	2r	2a
2B	[2d	2g	2b
=147	=147	=147	=147
1A	4d]	2a	4cc
.	4c	.	4b
.	1c	2f	4cc
.	.	.	4dd
2G	.	1g	2ee
2B	2B	.	[2dd
=148	=148	=148	=148
1A	1c	2e	4dd]
.	.	.	4cc
.	.	2f	1cc
1G	1d	[1g	.
.	.	.	2b
=149	=149	=149	=149
2E	[0cl	2g]	[0ccl
1F	.	1a	.
4E	.	4g	.
4D	.	4f	.
=150	=150	=150	=150
00Cl	00c]	00el	00cc]
==	==	==	==
*-	*-	*-	*-
!!!system-decoration: [*]
!!!RDF**kern: i = editorial accidental
!!!RDF**kern: l = terminal long
!!!ENC: Benjamin Ory
!!!END: 2021/1/12
!!!EED: Benjamin Ory
!!!EEV: 2021/05/11
!!!YEC: Copyright 2021 Benjamin Ory, All Rights Reserved
!!!ONB: Translated from MusicXML on 2021/05/11
